assets/music-color/MusicColor2.svg

<svg xmlns="http://www.w3.org/2000/svg" data-name="Layer 3" viewBox="0 0 128 128"><path fill="#9da7b0" fill-rule="evenodd" d="M64 85.789a13.465 13.465 0 01-13.422-13.422V37.928a13.423 13.423 0 0126.845 0v34.439A13.466 13.466 0 0164 85.789z"/><path fill="#9da7b0" fill-rule="evenodd" d="M55.229 29.157a12.383 12.383 0 00-3.651 8.771v34.439a12.423 12.423 0 0024.845 0V37.928a12.4 12.4 0 00-21.194-8.771z"/><path fill="#5f717f" d="M64 89.923a17.6 17.6 0 0017.557-17.556V37.928A17.6 17.6 0 0064 20.372a17.6 17.6 0 00-17.556 17.556v34.439A17.6 17.6 0 0064 89.923zm-12.422-52A12.466 12.466 0 0164 25.506a12.466 12.466 0 0112.423 12.422v34.439A12.466 12.466 0 0164 84.789a12.466 12.466 0 01-12.422-12.422z"/><path fill="#5f717f" d="M61.443 98.158v4.356h-6.672a2.557 2.557 0 000 5.114h18.458a2.557 2.557 0 000-5.114h-6.672v-4.356a25.469 25.469 0 0023.175-25.474v-8.865a2.567 2.567 0 00-5.134 0v8.865a20.6 20.6 0 11-41.2 0v-8.865a2.567 2.567 0 00-5.134 0v8.865a25.469 25.469 0 0023.179 25.474z"/></svg>

<svg id="Layer_3" data-name="Layer 3" xmlns="http://www.w3.org/2000/svg" viewBox="0 0 128 128"><title>Artboard 98</title><path d="M64,85.789A13.465,13.465,0,0,1,50.578,72.367V37.928a13.423,13.423,0,0,1,26.845,0V72.367A13.466,13.466,0,0,1,64,85.789Z" style="fill:#9da7b0;fill-rule:evenodd"/><path d="M55.229,29.157a12.383,12.383,0,0,0-3.651,8.771V72.367a12.423,12.423,0,0,0,24.845,0V37.928a12.4,12.4,0,0,0-21.194-8.771Z" style="fill:#9da7b0;fill-rule:evenodd"/><path d="M64,89.923h0A17.6,17.6,0,0,0,81.557,72.367V37.928A17.6,17.6,0,0,0,64,20.372h0A17.6,17.6,0,0,0,46.444,37.928V72.367A17.6,17.6,0,0,0,64,89.923Zm-12.422-52A12.466,12.466,0,0,1,64,25.506h0A12.466,12.466,0,0,1,76.423,37.928V72.367A12.466,12.466,0,0,1,64,84.789h0A12.466,12.466,0,0,1,51.578,72.367Z" style="fill:#5f717f"/><path d="M61.443,98.158v4.356H54.771a2.557,2.557,0,0,0,0,5.114H73.229a2.557,2.557,0,0,0,0-5.114H66.557V98.158A25.469,25.469,0,0,0,89.732,72.684V63.819a2.567,2.567,0,0,0-5.134,0v8.865a20.6,20.6,0,1,1-41.2,0V63.819a2.567,2.567,0,0,0-5.134,0v8.865A25.469,25.469,0,0,0,61.443,98.158Z" style="fill:#5f717f"/></svg>
